outputs/icons/navigation/arrow_forward_sharp.svg

<svg xmlns="http://www.w3.org/2000/svg" width="1200" height="1200" fill="none"><g clip-path="url(#a)"><path fill="#000" d="m600 200-70.5 70.5 279 279.5H200v100h608.5l-279 279.5L600 1000l400-400z"/></g><defs><clipPath id="a"><path fill="#fff" d="M0 0h1200v1200H0z"/></clipPath></defs></svg>

<svg width="1200" height="1200" viewBox="0 0 1200 1200" fill="none" xmlns="http://www.w3.org/2000/svg"><g clip-path="url(#clip0_117_967)"><path d="M600 200L529.5 270.5L808.5 550H200V650H808.5L529.5 929.5L600 1000L1000 600L600 200Z" fill="#1D1E23"/></g><defs><clipPath id="clip0_117_967"><path width="24" fill="white" d="M0 0H1200V1200H0V0z"/></clipPath></defs></svg>
